X: 35091
T: Rolling Waves, The
R: jig
M: 6/8
K: Dmajor
|:~F3 DED|D2d cAG|FAF DED|A2F GFE|
FEF DED|D2d cAG|FAF GBG|A2F GFE:|
D2d cAd|cAd cAG|F2d cAG|FAF GEA|
D2d cAd|fed cAG|FAF GBG|A2F GFE:|

